elementary-xfce/mimes/24/text-x-readme.svg

<?xml version="1.0" encoding="UTF-8" standalone="no"?>
<!-- Created with Inkscape (http://www.inkscape.org/) -->

<svg
   xmlns:dc="http://purl.org/dc/elements/1.1/"
   xmlns:cc="http://creativecommons.org/ns#"
   xmlns:rdf="http://www.w3.org/1999/02/22-rdf-syntax-ns#"
   xmlns:svg="http://www.w3.org/2000/svg"
   xmlns="http://www.w3.org/2000/svg"
   xmlns:xlink="http://www.w3.org/1999/xlink"
   xmlns:sodipodi="http://sodipodi.sourceforge.net/DTD/sodipodi-0.dtd"
   xmlns:inkscape="http://www.inkscape.org/namespaces/inkscape"
   version="1.0"
   width="24"
   height="24"
   id="svg2597"
   inkscape:version="0.48.3.1 r9886"
   sodipodi:docname="text-x-readme.svg">
  <metadata
     id="metadata111865">
    <rdf:RDF>
      <cc:Work
         rdf:about="">
        <dc:format>image/svg+xml</dc:format>
        <dc:type
           rdf:resource="http://purl.org/dc/dcmitype/StillImage" />
      </cc:Work>
    </rdf:RDF>
  </metadata>
  <sodipodi:namedview
     pagecolor="#ffffff"
     bordercolor="#666666"
     borderopacity="1"
     objecttolerance="10"
     gridtolerance="10"
     guidetolerance="10"
     inkscape:pageopacity="0"
     inkscape:pageshadow="2"
     inkscape:window-width="640"
     inkscape:window-height="480"
     id="namedview111863" />
  <defs
     id="defs2599">
    <linearGradient
       id="linearGradient5048">
      <stop
         id="stop5050"
         style="stop-color:#000000;stop-opacity:0"
         offset="0" />
      <stop
         id="stop5056"
         style="stop-color:#000000;stop-opacity:1"
         offset="0.5" />
      <stop
         id="stop5052"
         style="stop-color:#000000;stop-opacity:0"
         offset="1" />
    </linearGradient>
    <linearGradient
       x1="302.85715"
       y1="366.64789"
       x2="302.85715"
       y2="609.50507"
       id="linearGradient2447"
       xlink:href="#linearGradient5048"
       gradientUnits="userSpaceOnUse"
       gradientTransform="matrix(3.52071e-2,0,0,8.23529e-3,-0.724852,18.980551)" />
    <radialGradient
       cx="605.71429"
       cy="486.64789"
       r="117.14286"
       fx="605.71429"
       fy="486.64789"
       id="radialGradient2444"
       xlink:href="#linearGradient5060"
       gradientUnits="userSpaceOnUse"
       gradientTransform="matrix(-1.204859e-2,0,0,8.23529e-3,10.761206,18.980568)" />
    <linearGradient
       id="linearGradient5060">
      <stop
         id="stop5062"
         style="stop-color:#000000;stop-opacity:1"
         offset="0" />
      <stop
         id="stop5064"
         style="stop-color:#000000;stop-opacity:0"
         offset="1" />
    </linearGradient>
    <radialGradient
       cx="605.71429"
       cy="486.64789"
       r="117.14286"
       fx="605.71429"
       fy="486.64789"
       id="radialGradient2441"
       xlink:href="#linearGradient5060"
       gradientUnits="userSpaceOnUse"
       gradientTransform="matrix(1.204859e-2,0,0,8.23529e-3,13.238794,18.980568)" />
    <linearGradient
       id="linearGradient3104">
      <stop
         id="stop3106"
         style="stop-color:#aaaaaa;stop-opacity:1"
         offset="0" />
      <stop
         id="stop3108"
         style="stop-color:#c8c8c8;stop-opacity:1"
         offset="1" />
    </linearGradient>
    <linearGradient
       x1="-51.786404"
       y1="50.786446"
       x2="-51.786404"
       y2="2.9062471"
       id="linearGradient2438"
       xlink:href="#linearGradient3104"
       gradientUnits="userSpaceOnUse"
       gradientTransform="matrix(0.3922135,0,0,0.4473607,29.199293,-1.2386997)" />
    <linearGradient
       id="linearGradient3600">
      <stop
         id="stop3602"
         style="stop-color:#f4f4f4;stop-opacity:1"
         offset="0" />
      <stop
         id="stop3604"
         style="stop-color:#dbdbdb;stop-opacity:1"
         offset="1" />
    </linearGradient>
    <linearGradient
       x1="25.132275"
       y1="0.98520643"
       x2="25.132275"
       y2="47.013336"
       id="linearGradient2435"
       xlink:href="#linearGradient3600"
       gradientUnits="userSpaceOnUse"
       gradientTransform="matrix(0.4857154,0,0,0.4780255,0.3428305,-0.7059501)" />
    <radialGradient
       cx="102"
       cy="112.3047"
       r="139.55859"
       id="XMLID_8_"
       gradientUnits="userSpaceOnUse">
      <stop
         id="stop41"
         style="stop-color:#b7b8b9;stop-opacity:1"
         offset="0" />
      <stop
         id="stop47"
         style="stop-color:#ececec;stop-opacity:1"
         offset="0.17402567" />
      <stop
         id="stop49"
         style="stop-color:#fafafa;stop-opacity:0"
         offset="0.23907544" />
      <stop
         id="stop51"
         style="stop-color:#ffffff;stop-opacity:0"
         offset="0.30111277" />
      <stop
         id="stop53"
         style="stop-color:#fafafa;stop-opacity:0"
         offset="0.53130001" />
      <stop
         id="stop55"
         style="stop-color:#ebecec;stop-opacity:0"
         offset="0.84490001" />
      <stop
         id="stop57"
         style="stop-color:#e1e2e3;stop-opacity:0"
         offset="1" />
    </radialGradient>
    <radialGradient
       cx="92.090363"
       cy="102.70267"
       r="139.55859"
       fx="92.090363"
       fy="102.70267"
       id="radialGradient2432"
       xlink:href="#XMLID_8_"
       gradientUnits="userSpaceOnUse"
       gradientTransform="matrix(0.1702128,0,0,-0.1907226,1.1063831,23.716504)" />
    <linearGradient
       id="linearGradient3211">
      <stop
         id="stop3213"
         style="stop-color:#ffffff;stop-opacity:1"
         offset="0" />
      <stop
         id="stop3215"
         style="stop-color:#ffffff;stop-opacity:0"
         offset="1" />
    </linearGradient>
    <linearGradient
       x1="24"
       y1="1.9999999"
       x2="24"
       y2="46.01725"
       id="linearGradient2429"
       xlink:href="#linearGradient3211"
       gradientUnits="userSpaceOnUse"
       gradientTransform="matrix(0.4545444,0,0,0.4651153,1.0909345,0.3372293)" />
    <linearGradient
       id="linearGradient8589">
      <stop
         id="stop8591"
         style="stop-color:#fefefe;stop-opacity:1"
         offset="0" />
      <stop
         id="stop8593"
         style="stop-color:#cbcbcb;stop-opacity:1"
         offset="1" />
    </linearGradient>
    <linearGradient
       x1="32.892288"
       y1="8.0590115"
       x2="36.358372"
       y2="5.4565363"
       id="linearGradient2425"
       xlink:href="#linearGradient8589"
       gradientUnits="userSpaceOnUse"
       gradientTransform="matrix(0.4778466,0,0,0.5524833,0.3722548,-7.61283e-2)" />
  </defs>
  <g
     id="layer1">
    <rect
       width="17"
       height="1.9999981"
       x="3.5000005"
       y="21.999998"
       id="rect2879"
       style="opacity:0.15;fill:url(#linearGradient2447);fill-opacity:1;fill-rule:nonzero;stroke:none;stroke-width:1;marker:none;visibility:visible;display:inline;overflow:visible" />
    <path
       d="M 3.5,22.000086 C 3.5,22.000086 3.5,23.999975 3.5,23.999975 C 2.8795275,24.00374 2,23.551901 2,22.999901 C 2,22.447902 2.6924,22.000086 3.5,22.000086 z"
       id="path2881"
       style="opacity:0.15;fill:url(#radialGradient2444);fill-opacity:1;fill-rule:nonzero;stroke:none;stroke-width:1;marker:none;visibility:visible;display:inline;overflow:visible" />
    <path
       d="M 20.5,22.000086 C 20.5,22.000086 20.5,23.999975 20.5,23.999975 C 21.120472,24.003775 22,23.551901 22,22.999901 C 22,22.447902 21.307599,22.000086 20.5,22.000086 L 20.5,22.000086 z"
       id="path2883"
       style="opacity:0.15;fill:url(#radialGradient2441);fill-opacity:1;fill-rule:nonzero;stroke:none;stroke-width:1;marker:none;visibility:visible;display:inline;overflow:visible" />
    <path
       d="M 3.4999617,0.49996097 C 7.3955416,0.49996097 11.104417,0.49996097 15,0.49996097 C 15.683368,0.73725787 19.541325,3.628131 20.5,5.5 C 20.5,11.229157 20.500039,16.770881 20.500039,22.500039 C 14.833346,22.500039 9.1666545,22.500039 3.4999617,22.500039 C 3.4999617,15.166679 3.4999617,7.8333189 3.4999617,0.49996097 L 3.4999617,0.49996097 z"
       id="path4160"
       style="fill:url(#linearGradient2435);fill-opacity:1;stroke:url(#linearGradient2438);stroke-width:0.99992162;stroke-linecap:butt;stroke-linejoin:round;stroke-miterlimit:4;stroke-dasharray:none;stroke-dashoffset:0;stroke-opacity:1;display:inline" />
    <path
       d="M 4.1702128,22 C 4.0764256,22 4,21.914366 4,21.809277 L 4,1.2112452 C 4,1.1059667 4.0764256,1.0205233 4.1702128,1.0205233 C 7.6916683,1.0732401 11.594065,0.94166522 15.11124,1.0336487 L 19.950127,5.3607855 L 20,21.809277 C 20,21.914366 19.923743,22 19.829786,22 L 4.1702128,22 z"
       id="path4191"
       style="fill:url(#radialGradient2432);fill-opacity:1" />
    <path
       d="M 19.500001,5.6770357 C 19.500001,10.885341 19.500001,16.291693 19.500001,21.5 C 14.500001,21.5 9.5000012,21.5 4.5,21.5 C 4.5,14.83333 4.5,8.1666657 4.5,1.4999999 C 7.9372614,1.4999999 11.456499,1.4999999 14.893761,1.4999999"
       id="path2435"
       style="opacity:0.6;fill:none;stroke:url(#linearGradient2429);stroke-width:0.99999988;stroke-linecap:butt;stroke-linejoin:miter;stroke-miterlimit:4;stroke-dasharray:none;stroke-dashoffset:0;stroke-opacity:1;display:inline" />
    <path
       d="M 8.5,12.340691 C 8.6665464,12.730565 8.8540062,13.046587 9.2533157,12.61447 C 9.7483707,12.36083 11.407116,11.24905 11.241138,12.338063 C 10.710009,14.35322 10.063506,16.347184 9.5691825,18.368548 C 9.0522968,19.475335 10.226044,20.476472 11.451521,19.756722 C 12.754124,19.294311 13.875012,18.541121 15.020123,17.850184 C 14.863881,17.520222 14.759742,17.046233 14.328028,17.477748 C 13.761163,17.699309 12.52307,18.743885 12.293055,17.882344 C 12.769216,15.700294 13.651434,13.59902 14.215362,11.434367 C 14.734323,10.439065 13.886758,9.1814656 12.61805,10.004792 C 11.098105,10.574844 9.8270327,11.506046 8.5,12.340691 z M 14.141005,5.00171 C 12.590212,4.9308402 11.779404,7.0835833 13.253112,7.6726706 C 14.448721,8.0949061 15.750525,7.0389528 15.458443,5.9838122 C 15.3678,5.4343917 14.794973,4.9832286 14.141005,5.00171 L 14.141005,5.00171 z"
       id="text3482"
       style="font-size:40px;font-style:normal;font-variant:normal;font-weight:bold;font-stretch:normal;text-align:start;line-height:100%;writing-mode:lr-tb;text-anchor:start;opacity:0.4;fill:#000000;fill-opacity:1;stroke:none;stroke-width:1px;stroke-linecap:butt;stroke-linejoin:miter;stroke-opacity:1;font-family:URW Palladio L;-inkscape-font-specification:URW Palladio L Bold" />
    <path
       d="M 8.5,13.340691 C 8.6665464,13.730564 8.8540062,14.046587 9.2533157,13.614469 C 9.7483707,13.360829 11.407116,12.249049 11.241138,13.338063 C 10.710009,15.35322 10.063506,17.347184 9.5691825,19.368547 C 9.0522968,20.475335 10.226044,21.476472 11.451521,20.756722 C 12.754124,20.294311 13.875012,19.541121 15.020123,18.850184 C 14.863881,18.520221 14.759742,18.046232 14.328028,18.477747 C 13.761163,18.699308 12.52307,19.743885 12.293055,18.882344 C 12.769216,16.700294 13.651434,14.599019 14.215362,12.434367 C 14.734323,11.439065 13.886758,10.181465 12.61805,11.004792 C 11.098105,11.574844 9.8270327,12.506046 8.5,13.340691 z M 14.141005,6.0017096 C 12.590212,5.9308396 11.779404,8.0835829 13.253112,8.6726702 C 14.448721,9.0949057 15.750525,8.0389524 15.458443,6.9838118 C 15.3678,6.4343913 14.794973,5.983228 14.141005,6.0017096 L 14.141005,6.0017096 z"
       id="path3536"
       style="font-size:40px;font-style:normal;font-variant:normal;font-weight:bold;font-stretch:normal;text-align:start;line-height:100%;writing-mode:lr-tb;text-anchor:start;opacity:0.4;fill:#ffffff;fill-opacity:1;stroke:none;stroke-width:1px;stroke-linecap:butt;stroke-linejoin:miter;stroke-opacity:1;font-family:URW Palladio L;-inkscape-font-specification:URW Palladio L Bold" />
    <path
       d="M 14.075474,1 C 15.231777,1.3287671 14.414533,5.6143789 14.414533,5.6143789 C 14.414533,5.6143789 18.929921,5.1866427 20.022243,6.809375 C 21.511396,9.0216317 19.954018,6.1742029 19.848796,5.9876778 C 19.092868,4.6476323 15.982456,1.4405918 14.803387,1.0464703 C 14.715155,1.0169778 14.519511,1 14.075474,1 z"
       id="path3370"
       style="opacity:0.2;fill:#000000;fill-opacity:1;fill-rule:evenodd;stroke:none;display:inline" />
    <path
       d="M 14,1 C 15.526166,1 15,5 15,5 C 15,5 19.992074,4.54674 19.992074,7 C 19.992074,6.4022581 20.047824,5.5215662 19.928004,5.3440674 C 19.088897,4.1010616 16.184239,1.4821803 15.129935,1.0464703 C 15.043957,1.0109384 14.444037,1 14,1 z"
       id="path4474"
       style="fill:url(#linearGradient2425);fill-opacity:1;fill-rule:evenodd;stroke:none;display:inline" />
  </g>
</svg>

<?xml version="1.0" encoding="UTF-8" standalone="no"?>
<!-- Created with Inkscape (http://www.inkscape.org/) -->

<svg
   xmlns:dc="http://purl.org/dc/elements/1.1/"
   xmlns:cc="http://creativecommons.org/ns#"
   xmlns:rdf="http://www.w3.org/1999/02/22-rdf-syntax-ns#"
   xmlns:svg="http://www.w3.org/2000/svg"
   xmlns="http://www.w3.org/2000/svg"
   xmlns:xlink="http://www.w3.org/1999/xlink"
   xmlns:sodipodi="http://sodipodi.sourceforge.net/DTD/sodipodi-0.dtd"
   xmlns:inkscape="http://www.inkscape.org/namespaces/inkscape"
   version="1.1"
   width="24"
   height="24"
   id="svg3828"
   inkscape:version="0.48.3.1 r9886"
   sodipodi:docname="text-x-readme.svg">
  <sodipodi:namedview
     pagecolor="#ffffff"
     bordercolor="#666666"
     borderopacity="1"
     objecttolerance="10"
     gridtolerance="10"
     guidetolerance="10"
     inkscape:pageopacity="0"
     inkscape:pageshadow="2"
     inkscape:window-width="1303"
     inkscape:window-height="768"
     id="namedview102613"
     showgrid="false"
     inkscape:zoom="9.8333333"
     inkscape:cx="12.20339"
     inkscape:cy="12"
     inkscape:window-x="384"
     inkscape:window-y="144"
     inkscape:window-maximized="0"
     inkscape:current-layer="svg3828" />
  <defs
     id="defs3830">
    <linearGradient
       x1="23.99999"
       y1="5.5641499"
       x2="23.99999"
       y2="43"
       id="linearGradient3119"
       xlink:href="#linearGradient3977"
       gradientUnits="userSpaceOnUse"
       gradientTransform="matrix(0.40540511,0,0,0.51351351,2.2696871,7.6756805)" />
    <linearGradient
       id="linearGradient3977">
      <stop
         id="stop3979"
         style="stop-color:#ffffff;stop-opacity:1"
         offset="0" />
      <stop
         id="stop3981"
         style="stop-color:#ffffff;stop-opacity:0.23529412"
         offset="0.03626217" />
      <stop
         id="stop3983"
         style="stop-color:#ffffff;stop-opacity:0.15686275"
         offset="0.95056331" />
      <stop
         id="stop3985"
         style="stop-color:#ffffff;stop-opacity:0.39215687"
         offset="1" />
    </linearGradient>
    <linearGradient
       x1="25.132275"
       y1="0.98520643"
       x2="25.132275"
       y2="47.013336"
       id="linearGradient3122"
       xlink:href="#linearGradient3600-4"
       gradientUnits="userSpaceOnUse"
       gradientTransform="matrix(0.48571543,0,0,0.45629666,0.3428289,8.3488617)" />
    <linearGradient
       id="linearGradient3600-4">
      <stop
         id="stop3602-7"
         style="stop-color:#f4f4f4;stop-opacity:1"
         offset="0" />
      <stop
         id="stop3604-6"
         style="stop-color:#dbdbdb;stop-opacity:1"
         offset="1" />
    </linearGradient>
    <linearGradient
       x1="-51.786404"
       y1="50.786446"
       x2="-51.786404"
       y2="2.9062471"
       id="linearGradient3124"
       xlink:href="#linearGradient3104-5"
       gradientUnits="userSpaceOnUse"
       gradientTransform="matrix(0.39221364,0,0,0.42702571,29.199296,7.8403287)" />
    <linearGradient
       id="linearGradient3104-5">
      <stop
         id="stop3106-6"
         style="stop-color:#a0a0a0;stop-opacity:1"
         offset="0" />
      <stop
         id="stop3108-9"
         style="stop-color:#bebebe;stop-opacity:1"
         offset="1" />
    </linearGradient>
    <radialGradient
       cx="605.71429"
       cy="486.64789"
       r="117.14286"
       fx="605.71429"
       fy="486.64789"
       id="radialGradient3045"
       xlink:href="#linearGradient5060"
       gradientUnits="userSpaceOnUse"
       gradientTransform="matrix(0.01204859,0,0,0.0082353,13.238793,26.980564)" />
    <linearGradient
       id="linearGradient5060">
      <stop
         id="stop5062"
         style="stop-color:#000000;stop-opacity:1"
         offset="0" />
      <stop
         id="stop5064"
         style="stop-color:#000000;stop-opacity:0"
         offset="1" />
    </linearGradient>
    <radialGradient
       cx="605.71429"
       cy="486.64789"
       r="117.14286"
       fx="605.71429"
       fy="486.64789"
       id="radialGradient3048"
       xlink:href="#linearGradient5060"
       gradientUnits="userSpaceOnUse"
       gradientTransform="matrix(-0.01204859,0,0,0.0082353,10.761206,26.980564)" />
    <linearGradient
       id="linearGradient5048">
      <stop
         id="stop5050"
         style="stop-color:#000000;stop-opacity:0"
         offset="0" />
      <stop
         id="stop5056"
         style="stop-color:#000000;stop-opacity:1"
         offset="0.5" />
      <stop
         id="stop5052"
         style="stop-color:#000000;stop-opacity:0"
         offset="1" />
    </linearGradient>
    <linearGradient
       x1="302.85715"
       y1="366.64789"
       x2="302.85715"
       y2="609.50507"
       id="linearGradient3826"
       xlink:href="#linearGradient5048"
       gradientUnits="userSpaceOnUse"
       gradientTransform="matrix(0.0352071,0,0,0.0082353,-0.724852,26.980547)" />
  </defs>
  <metadata
     id="metadata3833">
    <rdf:RDF>
      <cc:Work
         rdf:about="">
        <dc:format>image/svg+xml</dc:format>
        <dc:type
           rdf:resource="http://purl.org/dc/dcmitype/StillImage" />
        <dc:title></dc:title>
      </cc:Work>
    </rdf:RDF>
  </metadata>
  <g
     transform="translate(0,-8)"
     id="layer1">
    <rect
       width="16.999998"
       height="2"
       x="3.5000007"
       y="30"
       id="rect2879"
       style="opacity:0.15;fill:url(#linearGradient3826);fill-opacity:1;fill-rule:nonzero;stroke:none;stroke-width:1;marker:none;visibility:visible;display:inline;overflow:visible" />
    <path
       d="m 3.4999999,30.000085 c 0,0 0,1.999891 0,1.999891 C 2.8795275,32.003776 2,31.551901 2,30.999901 2,30.447902 2.6924,30.000085 3.4999999,30.000085 z"
       id="path2881"
       style="opacity:0.15;fill:url(#radialGradient3048);fill-opacity:1;fill-rule:nonzero;stroke:none;stroke-width:1;marker:none;visibility:visible;display:inline;overflow:visible" />
    <path
       d="m 20.5,30.000085 c 0,0 0,1.999891 0,1.999891 0.620472,0.0038 1.5,-0.448075 1.5,-1.000075 0,-0.551999 -0.692402,-0.999816 -1.5,-0.999816 z"
       id="path2883"
       style="opacity:0.15;fill:url(#radialGradient3045);fill-opacity:1;fill-rule:nonzero;stroke:none;stroke-width:1;marker:none;visibility:visible;display:inline;overflow:visible" />
    <path
       d="m 3.4999601,9.4999569 c 3.8955809,0 17.0000589,0.00136 17.0000589,0.00136 l 2.1e-5,20.9987161 c 0,0 -11.3333862,0 -17.0000799,0 0,-7.000018 0,-14.000035 0,-21.0000538 z"
       id="path4160-3"
       style="fill:url(#linearGradient3122);fill-opacity:1;stroke:url(#linearGradient3124);stroke-width:0.99992186;stroke-linecap:butt;stroke-linejoin:round;stroke-miterlimit:4;stroke-opacity:1;stroke-dasharray:none;stroke-dashoffset:0;display:inline" />
    <path
       d="m 19.5,29.5 -15.0000004,0 0,-19 L 19.5,10.5 z"
       id="rect6741-1"
       style="fill:none;stroke:url(#linearGradient3119);stroke-width:1;stroke-linecap:round;stroke-linejoin:miter;stroke-miterlimit:4;stroke-opacity:1;stroke-dasharray:none;stroke-dashoffset:0" />
  </g>
  <path
     inkscape:connector-curvature="0"
     style="font-size:40px;font-style:normal;font-variant:normal;font-weight:bold;font-stretch:normal;text-align:start;line-height:100%;writing-mode:lr-tb;text-anchor:start;opacity:0.4;fill:#000000;fill-opacity:1;stroke:none;font-family:URW Palladio L;-inkscape-font-specification:URW Palladio L Bold"
     id="text3482"
     d="m 8.5,12.340691 c 0.166546,0.389874 0.354006,0.705896 0.753316,0.273779 0.495055,-0.25364 2.1538,-1.36542 1.987822,-0.276407 -0.531129,2.015157 -1.177632,4.009121 -1.671955,6.030485 -0.516886,1.106787 0.656861,2.107924 1.882338,1.388174 1.302603,-0.462411 2.423491,-1.215601 3.568602,-1.906538 -0.156242,-0.329962 -0.260381,-0.803951 -0.692095,-0.372436 -0.566865,0.221561 -1.804958,1.266137 -2.034973,0.404596 0.476161,-2.18205 1.358379,-4.283324 1.922307,-6.447977 C 14.734323,10.439065 13.886758,9.1814648 12.61805,10.004792 11.098105,10.574844 9.827033,11.506046 8.5,12.340691 z m 5.641005,-7.3389812 c -1.550793,-0.07087 -2.361601,2.081873 -0.887893,2.67096 1.195609,0.422236 2.497413,-0.633718 2.205331,-1.688858 -0.09064,-0.549421 -0.66347,-1.000584 -1.317438,-0.982102 l 0,0 z" />
  <path
     inkscape:connector-curvature="0"
     style="font-size:40px;font-style:normal;font-variant:normal;font-weight:bold;font-stretch:normal;text-align:start;line-height:100%;writing-mode:lr-tb;text-anchor:start;opacity:0.4;fill:#ffffff;fill-opacity:1;stroke:none;font-family:URW Palladio L;-inkscape-font-specification:URW Palladio L Bold"
     id="path3536"
     d="m 8.5,13.340691 c 0.166546,0.389873 0.354006,0.705896 0.753316,0.273778 0.495055,-0.25364 2.1538,-1.36542 1.987822,-0.276406 -0.531129,2.015157 -1.177632,4.009121 -1.671955,6.030484 -0.516886,1.106788 0.656861,2.107925 1.882338,1.388175 1.302603,-0.462411 2.423491,-1.215601 3.568602,-1.906538 -0.156242,-0.329963 -0.260381,-0.803952 -0.692095,-0.372437 -0.566865,0.221561 -1.804958,1.266138 -2.034973,0.404597 0.476161,-2.18205 1.358379,-4.283325 1.922307,-6.447977 C 14.734323,11.439065 13.886758,10.181465 12.61805,11.004792 11.098105,11.574844 9.827033,12.506046 8.5,13.340691 z m 5.641005,-7.3389822 c -1.550793,-0.07087 -2.361601,2.081873 -0.887893,2.670961 1.195609,0.422235 2.497413,-0.633718 2.205331,-1.688859 -0.09064,-0.54942 -0.66347,-1.000583 -1.317438,-0.982102 l 0,0 z" />
</svg>
